styles/3/Numix/32/places/grey-folder-saved-search.svg

<?xml version="1.0" encoding="UTF-8" standalone="no"?>
<!-- Created with Inkscape (http://www.inkscape.org/) -->

<svg
   xmlns:dc="http://purl.org/dc/elements/1.1/"
   xmlns:cc="http://creativecommons.org/ns#"
   xmlns:rdf="http://www.w3.org/1999/02/22-rdf-syntax-ns#"
   xmlns:svg="http://www.w3.org/2000/svg"
   xmlns="http://www.w3.org/2000/svg"
   xmlns:sodipodi="http://sodipodi.sourceforge.net/DTD/sodipodi-0.dtd"
   xmlns:inkscape="http://www.inkscape.org/namespaces/inkscape"
   width="32"
   height="32"
   id="svg2"
   version="1.1"
   inkscape:version="0.91 r"
   sodipodi:docname="grey-folder-saved-search.svg"
   inkscape:export-filename="/media/Data/Main/Visuals/Icons/Numix/Desktop/repos/numix-wiki/Gjorgi/Numix-folders/48/New/folder-144.png"
   inkscape:export-xdpi="270"
   inkscape:export-ydpi="270">
  <defs
     id="defs4" />
  <sodipodi:namedview
     id="base"
     pagecolor="#ffffff"
     bordercolor="#666666"
     borderopacity="1.0"
     inkscape:pageopacity="0.0"
     inkscape:pageshadow="2"
     inkscape:zoom="10.878174"
     inkscape:cx="-17.931554"
     inkscape:cy="6.0741073"
     inkscape:document-units="px"
     inkscape:current-layer="layer1"
     showgrid="true"
     inkscape:window-width="1280"
     inkscape:window-height="998"
     inkscape:window-x="0"
     inkscape:window-y="0"
     inkscape:window-maximized="1"
     showguides="true"
     inkscape:guide-bbox="true">
    <inkscape:grid
       type="xygrid"
       id="grid2985"
       empspacing="5"
       visible="true"
       enabled="true"
       snapvisiblegridlinesonly="true" />
  </sodipodi:namedview>
  <metadata
     id="metadata7">
    <rdf:RDF>
      <cc:Work
         rdf:about="">
        <dc:format>image/svg+xml</dc:format>
        <dc:type
           rdf:resource="http://purl.org/dc/dcmitype/StillImage" />
        <dc:title />
      </cc:Work>
    </rdf:RDF>
  </metadata>
  <g
     inkscape:label="Layer 1"
     inkscape:groupmode="layer"
     id="layer1"
     transform="translate(0,-1020.3622)">
    <rect
       style="fill:#757575;fill-opacity:1;stroke:none"
       id="rect3757"
       width="26"
       height="10"
       x="3"
       y="1026.3622" />
    <path
       style="fill:#757575;fill-opacity:1;stroke:none"
       d="m 6,1026.3622 c 0,-1 0,-2 1.4545454,-2 l 5.0909096,0 c 1.454545,0 1.454545,1 1.454545,2 l 0,1 -8,0 z"
       id="path3759"
       inkscape:connector-curvature="0"
       sodipodi:nodetypes="ccccccc" />
    <path
       style="fill:#95989f;fill-opacity:1;stroke:none"
       d="m 5,1028.3622 22,0 0,4.9677 -22,0 z"
       id="path3765"
       inkscape:connector-curvature="0" />
    <rect
       y="1027.3622"
       x="7"
       height="12.999977"
       width="19"
       id="rect3763"
       style="fill:#d8d8da;fill-opacity:1;stroke:none" />
    <rect
       style="fill:#f9f9f9;fill-opacity:1;stroke:none"
       id="rect3761"
       width="19"
       height="12.999977"
       x="6"
       y="1029.3622" />
    <path
       style="fill:#bdbdbd;fill-opacity:1;stroke:none"
       d="m 1,1030.3622 30,0 -2.142857,18 -25.7142859,0 z"
       id="path2987"
       inkscape:connector-curvature="0"
       sodipodi:nodetypes="ccccc" />
    <path
       style="opacity:1.0;fill:#7f7f7f;fill-opacity:1;stroke:none"
       d="M 18 12 C 15.238576 12 13 14.2386 13 17 C 13 18.059574 13.312746 19.035056 13.875 19.84375 C 13.754659 19.892717 13.629184 19.964566 13.53125 20.0625 L 9.28125 24.28125 C 8.8895129 24.672987 8.8895128 25.327013 9.28125 25.71875 C 9.6729872 26.110487 10.327013 26.110487 10.71875 25.71875 L 14.9375 21.46875 C 15.035434 21.370816 15.107283 21.245341 15.15625 21.125 C 15.964944 21.687257 16.940417 22 18 22 C 20.761424 22 23 19.7614 23 17 C 23 14.2386 20.761424 12 18 12 z M 18 14 C 19.656854 14 21 15.3431 21 17 C 21 18.6569 19.656854 20 18 20 C 16.343146 20 15 18.6569 15 17 C 15 15.3431 16.343146 14 18 14 z "
       transform="translate(0,1020.3622)"
       id="rect3055" />
  </g>
</svg>

<!-- Created with Inkscape (http://www.inkscape.org/) -->
<svg xmlns="http://www.w3.org/2000/svg" viewBox="0 0 32 32">
 <g transform="translate(0,-1020.3622)">
  <rect width="26" height="10" x="3" y="1026.36" style="fill:#757575;fill-opacity:1;stroke:none"/>
  <path d="m 6 1026.36 c 0 -1 0 -2 1.455 -2 l 5.091 0 c 1.455 0 1.455 1 1.455 2 l 0 1 -8 0 z" style="fill:#757575;fill-opacity:1;stroke:none"/>
  <path d="m 5 1028.36 22 0 0 4.968 -22 0 z" style="fill:#95989f;fill-opacity:1;stroke:none"/>
  <rect y="1027.36" x="7" height="13" width="19" style="fill:#d8d8da;fill-opacity:1;stroke:none"/>
  <rect width="19" height="13" x="6" y="1029.36" style="fill:#f9f9f9;fill-opacity:1;stroke:none"/>
  <path d="m 1 1030.36 30 0 -2.143 18 -25.714 0 z" style="fill:#bdbdbd;fill-opacity:1;stroke:none"/>
  <path d="m 18 12 c -2.761 0 -5 2.239 -5 5 c 0 1.06 0.313 2.035 0.875 2.844 c -0.12 0.049 -0.246 0.121 -0.344 0.219 l -4.25 4.219 c -0.392 0.392 -0.392 1.046 0 1.438 c 0.392 0.392 1.046 0.392 1.438 0 l 4.219 -4.25 c 0.098 -0.098 0.17 -0.223 0.219 -0.344 c 0.809 0.562 1.784 0.875 2.844 0.875 c 2.761 0 5 -2.239 5 -5 c 0 -2.761 -2.239 -5 -5 -5 z m 0 2 c 1.657 0 3 1.343 3 3 c 0 1.657 -1.343 3 -3 3 c -1.657 0 -3 -1.343 -3 -3 c 0 -1.657 1.343 -3 3 -3 z" transform="translate(0,1020.3622)" style="fill:#7f7f7f;opacity:1;fill-opacity:1;stroke:none"/>
 </g>
</svg>
